docs/img/typetester_base/format_align_center.svg

<!-- Generated by IcoMoon.io -->
<svg version="1.1" xmlns="http://www.w3.org/2000/svg" width="768" height="768" viewBox="0 0 768 768">
<title> Text align center</title>

<path d="M96 96h576v64.5h-576v-64.5zM223.5 223.5h321v64.5h-321v-64.5zM96 415.5v-63h576v63h-576zM96 672v-64.5h576v64.5h-576zM223.5 480h321v64.5h-321v-64.5z"></path>
</svg>

<svg xmlns="http://www.w3.org/2000/svg" width="768" height="768" viewBox="0 0 768 768"><title>Text align center</title><path d="M96 96h576v64.5H96V96zm127.5 127.5h321V288h-321v-64.5zM96 415.5v-63h576v63H96zM96 672v-64.5h576V672H96zm127.5-192h321v64.5h-321V480z"/></svg>
